assets/ios/swift/Icons.xcassets/chatNew.imageset/chatNew.svg

<svg width="24" height="24" viewBox="0 0 24 24" fill="none" xmlns="http://www.w3.org/2000/svg">
<path d="M19 6H17C16.7167 6 16.4792 5.90417 16.2875 5.7125C16.0958 5.52083 16 5.28333 16 5C16 4.71667 16.0958 4.47917 16.2875 4.2875C16.4792 4.09583 16.7167 4 17 4H19V2C19 1.71667 19.0958 1.47917 19.2875 1.2875C19.4792 1.09583 19.7167 1 20 1C20.2833 1 20.5208 1.09583 20.7125 1.2875C20.9042 1.47917 21 1.71667 21 2V4H23C23.2833 4 23.5208 4.09583 23.7125 4.2875C23.9042 4.47917 24 4.71667 24 5C24 5.28333 23.9042 5.52083 23.7125 5.7125C23.5208 5.90417 23.2833 6 23 6H21V8C21 8.28333 20.9042 8.52083 20.7125 8.7125C20.5208 8.90417 20.2833 9 20 9C19.7167 9 19.4792 8.90417 19.2875 8.7125C19.0958 8.52083 19 8.28333 19 8V6Z" fill="black"/>
<path d="M22 17V10.6586C21.3744 10.8797 20.7013 11 20 11V17H6C5.46957 17 4.96086 17.2107 4.58579 17.5858L4 18.1716V5H14C14 4.29873 14.1203 3.62556 14.3414 3H4C2.89543 3 2 3.89543 2 5V20.5858C2 21.4767 3.07714 21.9229 3.70711 21.2929L6 19H20C21.1046 19 22 18.1046 22 17Z" fill="black"/>
</svg>

<svg xmlns="http://www.w3.org/2000/svg" width="24" height="24" fill="black" viewBox="0 0 24 24">
  <path d="M19 6h-2a.968.968 0 0 1-.712-.287A.967.967 0 0 1 16 5a.97.97 0 0 1 .288-.713A.968.968 0 0 1 17 4h2V2c0-.283.096-.52.288-.712A.968.968 0 0 1 20 1c.283 0 .52.096.712.288A.965.965 0 0 1 21 2v2h2a.97.97 0 0 1 .712.287c.192.192.288.43.288.713s-.096.52-.288.713A.968.968 0 0 1 23 6h-2v2a.97.97 0 0 1-.288.713A.968.968 0 0 1 20 9a.968.968 0 0 1-.712-.287A.967.967 0 0 1 19 8V6Z"/>
  <path d="M22 17v-6.341A5.99 5.99 0 0 1 20 11v6H6a2 2 0 0 0-1.414.586L4 18.172V5h10c0-.701.12-1.374.341-2H4a2 2 0 0 0-2 2v15.586c0 .89 1.077 1.337 1.707.707L6 19h14a2 2 0 0 0 2-2Z"/>
</svg>
